IMB-X-Files/The-Ambassadors-Assets/660bd844c5eea181eaa995d9_gr5-fix.svg

<svg fill="none" height="368" viewBox="0 0 564 368" width="564" xmlns="http://www.w3.org/2000/svg" xmlns:xlink="http://www.w3.org/1999/xlink"><linearGradient id="a" gradientUnits="userSpaceOnUse" x1="258.822" x2="375.13" y1="42.7808" y2="252.329"><stop offset="0" stop-color="#fff" stop-opacity=".4"/><stop offset="1" stop-color="#fff" stop-opacity=".08"/></linearGradient><g stroke="#fff"><path d="m14.5 344v-332" opacity=".2"/><path d="m103.5 344v-332" opacity=".2"/><path d="m192.5 344v-332" opacity=".2"/><path d="m281.5 344v-332" opacity=".2"/><path d="m116 40.5h332" opacity=".2"/><path d="m370.5 344v-332" opacity=".2"/><path d="m459.5 344v-332" opacity=".2"/><path d="m548.5 344v-332" opacity=".2"/></g><path clip-rule="evenodd" d="m255.797 196.211-97.908-138.1686c-4.77-6.7318.043-16.0424 8.294-16.0424h232.596c8.25 0 13.064 9.3106 8.293 16.0424l-95.366 134.5836v90.601c0 3.147-1.935 5.972-4.87 7.109l-40.661 15.751c-4.997 1.935-10.378-1.751-10.378-7.109z" fill="url(#a)" fill-rule="evenodd"/><path d="m277.823 138.26c33.782 0 17.625-50.7664 33.561-50.7664.808 0 1.689.1468 2.718.4402v-1.7607c-26.952-2.8611-17.772 36.7539-28.788 47.8319l-.661-1.688-23.427-46.1439h-9.473z" fill="#fff"/></svg>

<svg width="564" height="368" viewBox="0 0 564 368" fill="none" xmlns="http://www.w3.org/2000/svg">
    <line opacity="0.2" x1="14.5" y1="344" x2="14.5" y2="12" stroke="white" />
    <line opacity="0.2" x1="103.5" y1="344" x2="103.5" y2="12" stroke="white" />
    <line opacity="0.2" x1="192.5" y1="344" x2="192.5" y2="12" stroke="white" />
    <line opacity="0.2" x1="281.5" y1="344" x2="281.5" y2="12" stroke="white" />
    <line opacity="0.2" x1="116" y1="40.5" x2="448" y2="40.5" stroke="white" />
    <line opacity="0.2" x1="370.5" y1="344" x2="370.5" y2="12" stroke="white" />
    <line opacity="0.2" x1="459.5" y1="344" x2="459.5" y2="12" stroke="white" />
    <line opacity="0.2" x1="548.5" y1="344" x2="548.5" y2="12" stroke="white" />
    <path fill-rule="evenodd" clip-rule="evenodd"
        d="M255.797 196.211L157.889 58.0424C153.119 51.3106 157.932 42 166.183 42L398.779 42C407.029 42 411.843 51.3106 407.072 58.0424L311.706 192.626V283.227C311.706 286.374 309.771 289.199 306.836 290.336L266.175 306.087C261.178 308.022 255.797 304.336 255.797 298.978V196.211Z"
        fill="url(#paint0_linear_3122_281)" />
    <path
        d="M277.823 138.26C311.605 138.26 295.448 87.4936 311.384 87.4936C312.192 87.4936 313.073 87.6404 314.102 87.9338V86.1731C287.15 83.312 296.33 122.927 285.314 134.005L284.653 132.317L261.226 86.1731H251.753L277.823 138.26Z"
        fill="white" />
    <defs>
        <linearGradient id="paint0_linear_3122_281" x1="258.822" y1="42.7808" x2="375.13" y2="252.329"
            gradientUnits="userSpaceOnUse">
            <stop stop-color="white" stop-opacity="0.4" />
            <stop offset="1" stop-color="white" stop-opacity="0.08" />
        </linearGradient>
    </defs>
</svg>
